Papirus/24x24/panel/tomahawk-indicator.svg

<?xml version="1.0" encoding="UTF-8" standalone="no"?>
<svg xmlns:dc="http://purl.org/dc/elements/1.1/" xmlns:cc="http://creativecommons.org/ns#" xmlns:rdf="http://www.w3.org/1999/02/22-rdf-syntax-ns#" xmlns:svg="http://www.w3.org/2000/svg" xmlns="http://www.w3.org/2000/svg" version="1.0" width="24" height="24" id="svg2817">
    <metadata id="metadata57">
        <rdf:RDF>
            <cc:Work rdf:about="">
                <dc:format>
                    image/svg+xml
                </dc:format>
                <dc:type rdf:resource="http://purl.org/dc/dcmitype/StillImage"/>
                <dc:title/>
            </cc:Work>
        </rdf:RDF>
    </metadata>
    <path id="path4142" d="m 12,4 a 8,8 0 0 0 -8,8 8,8 0 0 0 8,8 8,8 0 0 0 8,-8 8,8 0 0 0 -8,-8 z m 0,2 c 3.313708,0 6,2.686291 6,6 -0.0026,1.704152 -0.729797,3.326791 -2,4.462891 L 16,10 l -2,0 0,2.5 0,5.150391 C 13.358034,17.879696 12.681686,17.9979 12,18 8.6862915,18 6,15.313708 6,12 6,8.686291 8.6862915,6 12,6 Z M 14,12.5 11.5,10.75 9,9 9,12.5 9,16 11.5,14.25 14,12.5 Z" style="color:#000000;opacity:1;fill:#ffffff;fill-opacity:1"/>
</svg>

<?xml version="1.0" encoding="UTF-8" standalone="no"?>
<svg id="svg2817" xmlns:rdf="http://www.w3.org/1999/02/22-rdf-syntax-ns#" xmlns="http://www.w3.org/2000/svg" height="24" width="24" version="1.0" xmlns:cc="http://creativecommons.org/ns#" xmlns:dc="http://purl.org/dc/elements/1.1/">
 <metadata id="metadata57">
  <rdf:RDF>
   <cc:Work rdf:about="">
    <dc:format>image/svg+xml</dc:format>
    <dc:type rdf:resource="http://purl.org/dc/dcmitype/StillImage"/>
    <dc:title/>
   </cc:Work>
  </rdf:RDF>
 </metadata>
 <path id="path4142" style="color:#000000" d="m12 4a8 8 0 0 0 -8 8 8 8 0 0 0 8 8 8 8 0 0 0 8 -8 8 8 0 0 0 -8 -8zm0 2c3.3137 0 6 2.6863 6 6-0.0026 1.7042-0.7298 3.3268-2 4.4629v-6.463h-2v2.5 5.1504c-0.642 0.23-1.318 0.348-2 0.35-3.3137 0-6-2.686-6-6 0-3.3137 2.6863-6 6-6zm2 6.5-2.5-1.75-2.5-1.75v3.5 3.5l2.5-1.75 2.5-1.75z" fill="#fff"/>
</svg>
